X: 132119
T: Mountain Breeze (The)
C: Joe Liddy
Z: BB
S: "The Leitrim Fiddler" (Dublin 1981)
L: 1/8
M: 4/4
R: reel
Q: 1/4 = 180
K: D
DE | F2 AF DFAF | BFAF BFAF | G2 BG dGBG | BGec dbAG |
F2 AF DFAF | BFAF EFGA | Bcde dBAG | FDEF D2 :|
eg | fdde fdad | fddB cdeg | fdde fded | cABc d2 fa |
fdde fdad | fdcB cdeg | fdec dcAG | FDEF D2 || ag |
fdde fdad | fdcB cdeg | fdec dcAG | Addc d2 fg | 
afge dfec | dcAB cAFG | Adfe dcAG | FDEF D4 ||
%%%%%%%%%%%%%%%%%%%%%%%%
